/* XPM */
static char *arcane_focus[] = {
"16 16 9 1",
". c None",
"# c #202020",
"G c #C0C8D0",
"g c #708090",
"B c #3878D8",
"b c #22448E",
"w c #FFF4C0",
"M c #B8B8C0",
"m c #606070",
"................",
"................",
".....######.....",
"....#GGBBbb#....",
"...#GwwBBBbb#...",
"..#GwwBBBBbbb#..",
"..#GBBBBBbbbb#..",
"..#GBBBBbbbbb#..",
"..#gBBBbbbbbb#..",
"...#gBBbbbbb#...",
"....#gbbbbb#....",
".....##bb##.....",
"......#Mm#......",
".....#MMmm#.....",
".....#Mmmm#.....",
"......####......"
};
