/* XPM */
static char *block_spark_2[] = {
"32 32 5 1",
". c None",
"# c #202020",
"C c #7FA5AD",
"D c #C6E2DE",
"w c #FFF4C0",
"................................",
"................................",
"................................",
"................................",
"................................",
"................................",
".............######.............",
"...........##CCCCCC##...........",
"..........#CCCCwCCCCC#..........",
".........#CCDDDDDDDDCC#.........",
"........#CCDD######DDCC#........",
".......#CCDD#......#DDCC#.......",
".......#CDD#........#DDC#.......",
"......#CCD#..........#DCC#......",
"......#CCD#..........#DCC#......",
"......#CCD#..........#DCC#......",
"......#CwD#..........#DwC#......",
"......#CCD#..........#DCC#......",
"......#CCD#..........#DCC#......",
".......#CDD#........#DDC#.......",
".......#CCDD#......#DDCC#.......",
"........#CCDD######DDCC#........",
".........#CCDDDDDDDDCC#.........",
"..........#CCCCCwCCCC#..........",
"...........##CCCCCC##...........",
".............######.............",
"................................",
"................................",
"................................",
"................................",
"................................",
"................................"
};
