/* XPM */
static char *block_spark_1[] = {
"32 32 4 1",
". c None",
"# c #202020",
"D c #C6E2DE",
"w c #FFF4C0",
"................................",
"................................",
"................................",
"................................",
"................................",
"................................",
"................................",
"................................",
"................................",
"...............##...............",
".............##DD##.............",
"............#DDDwDD#............",
"...........#DwwwwwwD#...........",
"..........#Dww####wwD#..........",
"..........#Dw#....#wD#..........",
".........#DDw#....#wDD#.........",
".........#Dww#....#wwD#.........",
"..........#Dw#....#wD#..........",
"..........#Dww####wwD#..........",
"...........#DwwwwwwD#...........",
"............#DDDwDD#............",
".............##DD##.............",
"...............##...............",
"................................",
"................................",
"................................",
"................................",
"................................",
"................................",
"................................",
"................................",
"................................"
};
