/* XPM */
static char *block_spark_3[] = {
"32 32 4 1",
". c None",
"# c #202020",
"C c #7FA5AD",
"D c #C6E2DE",
"................................",
"................................",
"................................",
"..............####..............",
"...........###CCCC###...........",
".........##CCCCCCCCCC##.........",
"........#CCCDDDDDDDDCCC#........",
".......#CCDD########DDCC#.......",
".......#CDD#........#DDCC#......",
"........###..........##DCC#.....",
"......................#DDC#.....",
".......................#DCC#....",
"........................#DC#....",
"........................#DC#....",
"........................#DCC#...",
"....###.................#DCC#...",
"...#CCD#.................###....",
"...#CCD#........................",
"....#CD#........................",
"....#CD#........................",
"....#CCD#.......................",
".....#CDD#......................",
".....#CCD##..........###........",
"......#CCDD#........#DDC#.......",
".......#CCDD########DDCC#.......",
"........#CCCDDDDDDDDCCC#........",
".........##CCCCCCCCCC##.........",
"...........###CCCC###...........",
"..............####..............",
"................................",
"................................",
"................................"
};
