/* XPM */
static char *block_spark_4[] = {
"32 32 3 1",
". c None",
"# c #202020",
"C c #7FA5AD",
"................................",
"................................",
"...............#................",
"..............#C#...............",
"...............#................",
"................................",
".......#................#.......",
"......#C#..............#C#......",
".......#................#.......",
"................................",
"................................",
"................................",
"................................",
"................................",
"................................",
"...#........................#...",
"..#C#......................#C#..",
"...#........................#...",
"................................",
"................................",
"................................",
"................................",
"................................",
".......#................#.......",
"......#C#..............#C#......",
".......#................#.......",
"................................",
"................#...............",
"...............#C#..............",
"................#...............",
"................................",
"................................"
};
