/* XPM */
static char *cast_glow_2[] = {
"32 32 5 1",
". c None",
"# c #202020",
"B c #3878D8",
"b c #22448E",
"w c #FFF4C0",
"................................",
"................................",
"................................",
"................................",
"................................",
"................................",
"................................",
"................................",
"..........#.....................",
".........#B#....................",
"........#BwB#...................",
".........#B##...................",
"..........##b#..........#.......",
"............#..........#B#......",
".....................##BwB#.....",
"....................#b##B#......",
".....................#..#.......",
"................................",
"................................",
"................................",
"...............#................",
"..............#b#...............",
"..............##................",
".............#B#................",
"............#BwB#...............",
".............#B#................",
"..............#.................",
"................................",
"................................",
"................................",
"................................",
"................................"
};
