/* XPM */
static char *cast_glow_3[] = {
"32 32 5 1",
". c None",
"# c #202020",
"B c #3878D8",
"b c #22448E",
"w c #FFF4C0",
"................................",
"................................",
"................................",
"................................",
"................................",
"................................",
"................................",
"................................",
"................................",
".............#..................",
"............#b#.................",
"...........#BBB#................",
"..........#bBwBb#...............",
"...........#BBB#.....#..........",
"............#b#b#...#b#.........",
".............#.#..##BBB#........",
".................#bbBwBb#.......",
"..............##..##BBB#........",
".............#bb#...#b#.........",
"............#BBB#....#..........",
"...........#bBwBb#..............",
"............#BBB#...............",
".............#b#................",
"..............#.................",
"................................",
"................................",
"................................",
"................................",
"................................",
"................................",
"................................",
"................................"
};
