/* XPM */
static char *cast_glow_1[] = {
"32 32 4 1",
". c None",
"# c #202020",
"B c #3878D8",
"b c #22448E",
"................................",
"................................",
"................................",
"................#...............",
"...............#b#..............",
"................#...............",
"................................",
"................................",
"................................",
"......#...................#.....",
".....#B#.................#B#....",
"......#...................#.....",
"................................",
"................................",
"................................",
"................................",
"................................",
"................................",
"................................",
"................................",
"................................",
".....#.....................#....",
"....#b#...................#b#...",
".....#.....................#....",
"................................",
"................................",
"................#...............",
"...............#B#..............",
"................#...............",
"................................",
"................................",
"................................"
};
