/* XPM */
static char *greatsword[] = {
"16 16 11 1",
". c None",
"# c #202020",
"m c #2E4450",
"B c #51707D",
"C c #7E9EAC",
"D c #AECBD4",
"w c #FFF4C0",
"U c #C89040",
"V c #F0C060",
"F c #5C2438",
"N c #93424E",
".......##.......",
"......#DC#......",
".....#wCBm#.....",
".....#DCBm#.....",
".....#DCBm#.....",
".....#DCBm#.....",
".....#DCBm#.....",
".....#DCBm#.....",
".....#DCBm#.....",
"..############..",
"..#VVVUUUUUUU#..",
"..############..",
"......#NF#......",
"......#NF#......",
"......#NF#......",
"......#VU#......"
};
