/* XPM */
static char *healing_potion[] = {
"16 16 9 1",
". c None",
"# c #202020",
"W c #A0703C",
"d c #6B4A26",
"G c #C0C8D0",
"g c #708090",
"R c #D83030",
"r c #8E1A28",
"w c #FFF4C0",
"......####......",
"......#Wd#......",
"......#Wd#......",
".....#GGGG#.....",
"......#GG#......",
"......#GG#......",
".....#GwwG#.....",
"....#GwRRrg#....",
"...#GwRRRRrg#...",
"...#GRRRRRrg#...",
"...#gRRRRrrg#...",
"...#grrrrrrg#...",
"....#grrrrg#....",
".....#gggg#.....",
"......####......",
"................"
};
