/* XPM */
static char *held_greatsword[] = {
"9 30 11 1",
". c None",
"# c #181420",
"A c #2E3A44",
"B c #51707D",
"C c #7FA5AD",
"D c #C6E2DE",
"w c #FFF4C0",
"U c #C89040",
"V c #F0C060",
"F c #5C2438",
"N c #93424E",
"....#....",
"...#D#...",
"...#DB#..",
"..#DCB#..",
"..#DCB#..",
"..#DCB#..",
"..#DCB#..",
"..#DCB#..",
"..#DCB#..",
"..#DCB#..",
"..#DCB#..",
"..#DwB#..",
"..#DCB#..",
"..#DCB#..",
"..#DCB#..",
"..#DCB#..",
"..#DCB#..",
"..#DCB#..",
"..#DCB#..",
"..#DCB#..",
"..#ACA#..",
"#########",
"#VVUUUUA#",
"#########",
"...#NF#..",
"...#NF#..",
"...#NF#..",
"...#NF#..",
"...#VU#..",
"....#...."
};
