/* XPM */
static char *impact_burst_4[] = {
"32 32 5 1",
". c None",
"G c #C0C8D0",
"g c #708090",
"o c #FFB000",
"x c #FF6A00",
"................................",
"................................",
"................................",
"................x...............",
"................................",
".........o......................",
"........................x.......",
"................................",
"......x.........................",
"....................GG..........",
"....................gg.....o....",
"..........GG....................",
"..........gg....................",
"................................",
"................................",
"...............o................",
"................x...............",
"............................x...",
"....o...........................",
"................................",
".........GG...........GG........",
".........gg...........gg........",
"................................",
"................................",
".......x........................",
".........................x......",
"................................",
"............x...................",
"....................o...........",
"................................",
"................................",
"................................"
};
