/* XPM */
static char *impact_burst_1[] = {
"32 32 5 1",
". c None",
"# c #202020",
"o c #FFB000",
"w c #FFF4C0",
"x c #FF6A00",
"................................",
"................................",
"................................",
"................................",
"..........................#.....",
"........................##x#....",
".......................#xx#.....",
".....................##xxx#.....",
"....................#ooox#......",
"..................##owoo#.......",
".................#oowwwo#.......",
"................#oowwwo#........",
"...............#oowwwo#.........",
"..............#oowwwoo#.........",
".............#oowwwoo#..........",
"............#oowwwoo#...........",
"...........#oowwwoo#............",
"..........#oowwwoo#.............",
".........#oowwwoo#..............",
".........#owwwoo#...............",
"........#owwwoo#................",
".......#owwwoo#.................",
".......#oowo##..................",
"......#xooo#..........#.........",
".....#xxx##..........#x##.......",
".....#xx#.............#oo#......",
"....#x##..............#ooo#.....",
".....#.................#oo#.....",
"........................##x#....",
"..........................#.....",
"................................",
"................................"
};
