/* XPM */
static char *impact_burst_3[] = {
"32 32 5 1",
". c None",
"# c #202020",
"o c #FFB000",
"w c #FFF4C0",
"x c #FF6A00",
"................#...............",
"...............#x#..............",
"...............#o#..............",
"................#...............",
"................................",
"............#######.............",
".......#..##xoooooo#....#.......",
"......#x##xooxx##x#..###x#......",
".......#oxox###..#..#oxo#.......",
".......#xo##.........#ox#.......",
".......#o#............#ox#......",
"........#.............#xo#......",
"......#................#ox#.....",
".....#o#.......##......#xo#.....",
".....#ox#.....#oo#.....#xo#.....",
".##..#o#.....#owwo#.....#o#..##.",
"#xo#.#o#.....#owwo#.....#o#.#ox#",
".##..#ox#.....#oo#.....#xo#..##.",
".....#ox#......##.......#o#.....",
".....#xo#................#......",
"......#ox#.............#........",
"......#xo#............#o#.......",
".......#xo#.........##ox#.......",
".......#oxo#..#..###xoxo#.......",
"......#x###..#x##xxoox##x#......",
".......#....#oooooox##..#.......",
".............#######............",
"................................",
"................#...............",
"...............#o#..............",
"...............#x#..............",
"................#..............."
};
