/* XPM */
static char *impact_burst_5[] = {
"32 32 3 1",
". c None",
"G c #C0C8D0",
"g c #708090",
"................................",
"................................",
"................................",
"................................",
"................................",
"................G...............",
"................................",
".......................g........",
"................................",
"........g.......................",
"................................",
"................................",
"................................",
"................................",
"...........................g....",
"................................",
".....g..........................",
"................................",
"................................",
"................................",
"................................",
"................................",
".........................g......",
"..........g.....................",
"................................",
"................................",
"..............G.................",
"................................",
"................................",
"................................",
"................................",
"................................"
};
