/* XPM */
static char *impact_burst_2[] = {
"32 32 5 1",
". c None",
"# c #202020",
"o c #FFB000",
"w c #FFF4C0",
"x c #FF6A00",
"................................",
"................................",
"................................",
"...............##..........#....",
"..............#xx#........#x#...",
"..............#xx#......##x#....",
"..............#xx#.....#xx#.....",
"........#.....#xx#....#oox#.....",
".......#x##...#oo#...#ooo#......",
"........#xx###oxxo###owo#.......",
"........#xxxxxxxxxxxowo#........",
".........#xxxooooooowo#.........",
".........#xxooooooowox#.........",
".........#xooowwoowoox#.........",
"....#####oxoowwoowoooxo#####....",
"...#xxxxoxxoowoowooooxxoxxxx#...",
"...#xxxxoxxoooowoowooxxoxxxx#...",
"....#####oxooowoowwooxo#####....",
".........#xoowoowwooox#.........",
".........#xowoooooooxx#.........",
".........#owoooooooxxx#.........",
"........#owoxxxxxxxxxxx#........",
".......#owo###oxxo###xx#........",
"......#ooo#...#oo#...##x#.......",
".....#xoo#....#xx#.....#........",
".....#xx#.....#xx#..............",
"....#x##......#xx#..............",
"...#x#........#xx#..............",
"....#..........##...............",
"................................",
"................................",
"................................"
};
