/* XPM */
static char *slash_diagonal_4[] = {
"32 32 4 1",
". c None",
"# c #202020",
"C c #7FA5AD",
"D c #C6E2DE",
"................................",
"................................",
"................................",
".........................#......",
".......................##D#.....",
"......................#CD#......",
".....................#DD#.......",
"......................##........",
"................................",
".................#..............",
"...............##D#.............",
"..............#CDDC#....#.......",
".............#CDDC#....#C#......",
"............#CDDC#......#.......",
".............#DC#...............",
"..............##................",
"..........#.....................",
".........#C#....................",
"........#CDC#...................",
"........#DD#.....#..............",
".......#CDC#....#C#.............",
".......#DC#......#..............",
"........##......................",
"................................",
".....#..........................",
"....#C#.........................",
"....#D#....#....................",
".....#....#C#...................",
"...........#....................",
"................................",
"................................",
"................................"
};
