/* XPM */
static char *slash_diagonal_1[] = {
"32 32 4 1",
". c None",
"# c #202020",
"C c #7FA5AD",
"D c #C6E2DE",
"................................",
"................................",
"................................",
"................................",
"................................",
"................................",
"................................",
"................................",
"...................#............",
".................##D#...........",
"................#CD#............",
"...............#DD#.............",
"..............#DD#..............",
".............#DD#...............",
"............#DDC#...............",
"...........#CDC#................",
"..........#CDC#.................",
".........#CDC#..................",
".........#DC#...................",
"........#CC#....................",
"........#C#.....................",
".........#......................",
"................................",
"................................",
"................................",
"................................",
"................................",
"................................",
"................................",
"................................",
"................................",
"................................"
};
