/* XPM */
static char *slash_diagonal_2[] = {
"32 32 5 1",
". c None",
"# c #202020",
"C c #7FA5AD",
"D c #C6E2DE",
"w c #FFF4C0",
"................................",
"................................",
"..........................#.....",
"........................##C#....",
"......................##CwC#....",
".....................#CDwC#.....",
"...................##DwwC#......",
"..................#CDwwC#.......",
".................#CwwDC#........",
"...............##DwwDC#.........",
"..............#CDwwDC#..........",
".............#CDwwDC#...........",
"............#CDwwDC#............",
"...........#CDwwDC#.............",
"..........#CDwwDC#..............",
"..........#DwwDC#...............",
".........#CwwDC#................",
"........#CDwwC#.................",
"........#DwwC#..................",
".......#CwwD#...................",
"......#CwwD#....................",
"......#DwDC#....................",
".....#CwwC#.....................",
".....#DwC#......................",
"....#CwD#.......................",
"....#DD#........................",
"....#w#.........................",
"...#D#..........................",
"....#...........................",
"................................",
"................................",
"................................"
};
