/* XPM */
static char *slash_diagonal_3[] = {
"32 32 5 1",
". c None",
"# c #202020",
"C c #7FA5AD",
"D c #C6E2DE",
"w c #FFF4C0",
"................................",
"................................",
"..........................##....",
"........................##DD#...",
"......................##DwD#....",
"....................##CwwD#.....",
"...................#CDwwD#......",
".................##DwwwD#.......",
"................#CDwwwD#.#......",
"...............#CDwwwD#.#D#.....",
"..............#CDwwwD#...#......",
".............#CDwwDD#...........",
"............#CDwwDD#............",
"...........#CDwwDD#.............",
"..........#CDwwDD#.#............",
".........#CDwwwD#.#C#...........",
"........#CDwwwDC#..#............",
"........#DwwwDC#................",
".......#CDwwDC#.................",
".......#DwwDC##.................",
"......#CwwDC##D#................",
".....#CDwwC#..#.................",
".....#DwwD#.....................",
".....#wwD#......................",
"....#DwD#.......................",
"....#wwC#.......................",
"...#CwC#..#.....................",
"...#wC#..#C#....................",
"...#C#....#.....................",
"....#...........................",
"................................",
"................................"
};
